X: 3
T: The Teetotallers
R: reel
M: 4/4
L: 1/8
K: Gmaj
|:"G"G/G/G GF GABc|d/d/d eB dBAc|"Em"BE E/E/D EFGA |BGAF GFED|
"G"G/G/G GF GABc|d/d/d ee dBAc|"Em"BE E/E/D EFGA |"D"BGAF "G"G2G2:|
|:"Em"Be e/e/d e2ef| gfaf gfed|"D"Ad d/d/^c d2de| fdaf gfed |
"Em"Be e/e/d e2ef|geaf gfed|BE E/E/D EFGA|"D"BGAF "G"G2G2:|


Tune 114	Setting 114

